libs/icons/src/svg/grant-offer.svg

<svg width="16" height="16" viewBox="0 0 16 16" fill="none" xmlns="http://www.w3.org/2000/svg">
<g clip-path="url(#clip0_3_3732)">
<path fill-rule="evenodd" clip-rule="evenodd" d="M5.99741 1.33333C5.63205 1.33333 5.33034 1.63504 5.33034 2.0004C5.33034 2.35603 5.61619 2.65135 5.96835 2.66683H7.69258C7.33637 1.96403 6.78637 1.33333 5.99741 1.33333ZM3.99701 2.0004C3.99701 2.23387 4.03736 2.45822 4.11145 2.66683H2.66268C1.9263 2.66683 1.32935 3.26379 1.32935 4.00017V5.3343C1.32935 6.07068 1.9263 6.66764 2.66268 6.66764H2.66565V8.66948H1.32967C0.593292 8.66948 -0.00366211 9.26643 -0.00366211 10.0028V12.4971C-0.00366211 13.0352 0.319859 13.5206 0.816575 13.7277L5.68586 15.7579L5.69717 15.7621C6.38016 16.0182 7.12139 16.011 7.76012 15.8513L7.79224 15.8433L14.2969 13.5114C14.6265 13.3933 14.9046 13.1453 15.0405 12.8164C15.1837 12.4698 15.1558 12.0529 14.8905 11.7107C14.7859 11.5757 14.6581 11.4374 14.5046 11.3076C14.6079 11.1182 14.6665 10.9011 14.6665 10.6702V6.66764H14.6667C15.4031 6.66764 16 6.07068 16 5.3343V4.00017C16 3.26379 15.4031 2.66683 14.6667 2.66683H13.2194C13.2935 2.45822 13.3338 2.23387 13.3338 2.0004C13.3338 0.898658 12.4352 0 11.3334 0C9.98702 0 9.14523 0.900082 8.66542 1.67837C8.18561 0.900082 7.34382 0 5.99741 0C4.89567 0 3.99701 0.898658 3.99701 2.0004ZM11.9993 12.0034V12.0036H12.6924C13.1486 12.009 13.4479 12.1578 13.6472 12.3279L7.40648 14.5652C6.99079 14.6636 6.54852 14.6545 6.1757 14.5175L1.32967 12.4971V10.0028L3.33047 10.0028C4.10811 10.0028 4.81368 10.3041 5.28277 10.8359C5.52508 11.1106 5.89736 11.3365 6.34725 11.3365H7.99855C8.37872 11.3365 8.82965 11.6063 9.10112 12.0038H5.33108V13.3371H9.33248C9.69574 13.3371 10.0516 13.1867 10.2912 12.9126C10.4987 12.6752 10.6109 12.3475 10.5501 12.0034H11.9993ZM12.6995 10.6702H13.3332V6.66764H3.99898V8.7222C4.87191 8.86152 5.68469 9.27595 6.2827 9.95392C6.30395 9.97801 6.32402 9.99192 6.33728 9.9986C6.34341 10.0017 6.34716 10.0028 6.34874 10.0032H7.99855C8.62324 10.0032 9.21427 10.2681 9.67943 10.6701H12.6666C12.6776 10.6701 12.6886 10.6701 12.6995 10.6702ZM2.66268 4.00017H5.94663C5.96351 4.00059 5.98043 4.0008 5.99741 4.0008H7.81111C7.82441 4.0008 7.83768 4.00059 7.85094 4.00017H9.4799C9.49316 4.00059 9.50643 4.0008 9.51973 4.0008H11.3334C11.3504 4.0008 11.3673 4.00059 11.3842 4.00017H14.6667V5.3343H2.66268V4.00017ZM12.0005 2.0004C12.0005 2.35603 11.7147 2.65135 11.3625 2.66683H9.63826C9.99447 1.96403 10.5445 1.33333 11.3334 1.33333C11.6988 1.33333 12.0005 1.63504 12.0005 2.0004Z" fill="#202327"/>
</g>
<defs>
<clipPath id="clip0_3_3732">
<rect width="16" height="16" fill="white"/>
</clipPath>
</defs>
</svg>

<svg xmlns="http://www.w3.org/2000/svg" viewBox="0 0 17 16" class="sageicon"><path fill-rule="evenodd" d="M6.001 1.333A.671.671 0 0 0 5.334 2c0 .356.286.651.638.667h1.724c-.356-.703-.906-1.334-1.695-1.334Zm-2 .667c0 .234.04.458.114.667H2.666c-.736 0-1.333.597-1.333 1.333v1.334c0 .737.597 1.334 1.333 1.334h.003v2.001H1.333C.597 8.67 0 9.266 0 10.003v2.494c0 .538.324 1.024.82 1.23l4.87 2.03.01.005c.684.256 1.425.249 2.064.09l.032-.009 6.505-2.332a1.26 1.26 0 0 0 .743-.695 1.099 1.099 0 0 0-.15-1.105 2.68 2.68 0 0 0-.386-.403c.104-.19.162-.407.162-.638V6.668c.737 0 1.334-.597 1.334-1.334V4c0-.736-.597-1.333-1.334-1.333h-1.447A2.004 2.004 0 0 0 11.337 0C9.991 0 9.15.9 8.67 1.678 8.19.9 7.347 0 6.001 0c-1.102 0-2 .899-2 2Zm8.002 10.003h.693c.456.006.756.155.955.325l-6.24 2.237c-.417.099-.859.09-1.232-.047l-4.846-2.02v-2.495h2.001c.778 0 1.483.301 1.952.833.243.275.615.5 1.065.5h1.651c.38 0 .831.27 1.103.668h-3.77v1.333h4.001c.363 0 .72-.15.959-.424a1.09 1.09 0 0 0 .259-.91h1.449Zm.7-1.333h.634V6.668H4.003v2.054c.873.14 1.685.554 2.283 1.232a.192.192 0 0 0 .055.045l.011.004h1.65c.625 0 1.216.265 1.681.667h3.02ZM2.666 4H14.67v1.334H2.666V4Zm9.338-2c0 .356-.286.651-.638.667H9.642c.356-.703.906-1.334 1.695-1.334.366 0 .667.302.667.667Z"/></svg>
